X:35
T:Guilderoy
S:American Veteran Fifer #35
M:2/4
L:1/16
Q:1/8=180
K:D 
%%MIDI program 72
%%MIDI transpose 8
%%MIDI ratio 3 1
|: AG | E2AB ABcd | efec d2cd | ecAB ABcA | BGEF G2AG |
E2AB ABcd | efec d2cd | efaf gedB | A2B2A2 :|
|: ef | g3a gfef | gage d2cd | ecAB ABcA | BGEF G2AG |
E2AB ABcd | efec d2cd | efaf gedB | A2B2A2 :|



